X:1
T:All My Trials
T:ALL MY TRIALS
C:Anonymous
Z:All Rights Reserved
L:1/4
M:4/4
K:C
V:1 treble 
%%MIDI program 0
V:1
"C""^Freely. with intensity" C D/D/ E F |[M:2/4] G A |[M:4/4]"Gm" _B4- | _B3 _B |"C" c G G/ G3/2- | %5
w: Hush lit- tle ba- by,|don't you|cry,|_ You|know your ma- ma|
w: If~religion was a thing that|money could|buy,|_ The|rich would * live|
w: I~had~a lit- tle book that~was|given to|me,|_ And|ev'ry page * *|
"Em" G G G G |"F" (A4 |"Dm" F3) z |"C" E4- |"Am" E3 F |"Dm" E/ D3/2 D2- | D3 z |"G7" D4- | D3 E | %14
w: _ was born to|die.|_|All|_ my|tri- als, Lord,|_|Soon|_ be|
w: _ and~the poor would|die.|_|||||||
w: * spelled lib- er-|ty.|_|||||||
"C" D/ C3/2 C2- | C4 || z c c A | c/c/- c3- | c4 |"C7" z G G2- | G G G/ G3/2 |"F" (A4 |"Dm" F3) z | %23
w: o- * ver.|_|Too late, my|broth- ers. _|_|Too late,|_ but nev- er-|mind.|_|
w: |||||||||
w: |||||||||
"C" E4- |"Am" E3 F |"Dm" E/ D3/2 D2- | D3 z |"G7" D4- | D3 E |"C" (D/ C3/2) C2- | C4 |] %31
w: All|_ my|tri- als, Lord,|_|Soon|_ be|o- * ver.|_|
w: ||||||||
w: ||||||||

